Numix-Circle/48x48/apps/viking.svg

<?xml version="1.0" encoding="UTF-8" standalone="no"?>
<svg
   xmlns:dc="http://purl.org/dc/elements/1.1/"
   xmlns:cc="http://creativecommons.org/ns#"
   xmlns:rdf="http://www.w3.org/1999/02/22-rdf-syntax-ns#"
   xmlns:svg="http://www.w3.org/2000/svg"
   xmlns="http://www.w3.org/2000/svg"
   xmlns:xlink="http://www.w3.org/1999/xlink"
   xmlns:sodipodi="http://sodipodi.sourceforge.net/DTD/sodipodi-0.dtd"
   xmlns:inkscape="http://www.inkscape.org/namespaces/inkscape"
   width="48"
   viewBox="0 0 13.546667 13.546667"
   height="48"
   id="svg2"
   version="1.1"
   inkscape:version="0.91 r13725"
   sodipodi:docname="viking.svg">
  <metadata
     id="metadata331">
    <rdf:RDF>
      <cc:Work
         rdf:about="">
        <dc:format>image/svg+xml</dc:format>
        <dc:type
           rdf:resource="http://purl.org/dc/dcmitype/StillImage" />
        <dc:title />
      </cc:Work>
    </rdf:RDF>
  </metadata>
  <sodipodi:namedview
     pagecolor="#ffffff"
     bordercolor="#666666"
     borderopacity="1"
     objecttolerance="10"
     gridtolerance="10"
     guidetolerance="10"
     inkscape:pageopacity="0"
     inkscape:pageshadow="2"
     inkscape:window-width="1366"
     inkscape:window-height="713"
     id="namedview329"
     showgrid="false"
     inkscape:zoom="16"
     inkscape:cx="25.048512"
     inkscape:cy="20.586744"
     inkscape:window-x="0"
     inkscape:window-y="28"
     inkscape:window-maximized="1"
     inkscape:current-layer="layer2"
     inkscape:snap-to-guides="false"
     showguides="true"
     inkscape:guide-bbox="true">
    <inkscape:grid
       type="xygrid"
       id="grid3308" />
  </sodipodi:namedview>
  <defs
     id="defs4">
    <linearGradient
       id="linearGradient4073">
      <stop
         style="stop-color:#99c8ed;stop-opacity:1;"
         offset="0"
         id="stop4075" />
      <stop
         style="stop-color:#aad2f0;stop-opacity:1;"
         offset="1"
         id="stop4077" />
    </linearGradient>
    <radialGradient
       xlink:href="#0-6"
       id="6-9"
       cx="-3"
       cy="24"
       r="10"
       gradientUnits="userSpaceOnUse" />
    <linearGradient
       id="0-6">
      <stop
         stop-color="#91b0c7"
         id="stop7-0" />
      <stop
         offset="1"
         stop-color="#91b0c7"
         stop-opacity="0"
         id="stop9-3" />
    </linearGradient>
    <radialGradient
       r="10"
       cy="24"
       cx="-3"
       gradientUnits="userSpaceOnUse"
       id="radialGradient3922"
       xlink:href="#0-6"
       inkscape:collect="always" />
    <linearGradient
       inkscape:collect="always"
       xlink:href="#linearGradient4073"
       id="linearGradient4079"
       x1="-25.499998"
       y1="15"
       x2="-25.499998"
       y2="11"
       gradientUnits="userSpaceOnUse" />
    <linearGradient
       inkscape:collect="always"
       xlink:href="#linearGradient3837"
       id="linearGradient3843"
       x1="23"
       y1="13"
       x2="23"
       y2="31"
       gradientUnits="userSpaceOnUse"
       gradientTransform="matrix(0.9587455,0,0,0.97514518,0.98996259,0.60596513)" />
    <linearGradient
       id="linearGradient3837">
      <stop
         style="stop-color:#5ab133;stop-opacity:1;"
         offset="0"
         id="stop3839" />
      <stop
         style="stop-color:#54a630;stop-opacity:1;"
         offset="1"
         id="stop3841" />
    </linearGradient>
  </defs>
  <g
     inkscape:groupmode="layer"
     id="layer1"
     inkscape:label="Shadow"
     sodipodi:insensitive="true">
    <path
       style="opacity:0.05;fill:#000000;fill-opacity:1;stroke:none"
       d="M 25,2 C 12.297451,2 2,12.297451 2,25 2,31.367153 4.6007106,37.116628 8.78125,41.28125 12.865755,44.99361 18.29568,47.25 24.25,47.25 c 12.702549,0 23,-10.297451 23,-23 0,-5.95432 -2.25639,-11.384245 -5.96875,-15.46875 C 37.116628,4.6007105 31.367153,2 25,2 z M 41.28125,8.78125 C 45.135604,12.894061 47.5,18.418655 47.5,24.5 c 0,12.702549 -10.297451,23 -23,23 C 18.418655,47.5 12.894061,45.135604 8.78125,41.28125 12.940939,45.4251 18.664604,48 25,48 37.702549,48 48,37.702549 48,25 48,18.664604 45.4251,12.940939 41.28125,8.78125 z"
       transform="scale(0.28222223,0.28222223)"
       id="path3978"
       inkscape:connector-curvature="0" />
    <path
       style="opacity:0.1;fill:#000000;fill-opacity:1;stroke:none"
       d="M 41.28125,8.78125 C 44.99361,12.865755 47.25,18.29568 47.25,24.25 c 0,12.702549 -10.297451,23 -23,23 -5.95432,0 -11.384245,-2.25639 -15.46875,-5.96875 C 12.894061,45.135604 18.418655,47.5 24.5,47.5 c 12.702549,0 23,-10.297451 23,-23 0,-6.081345 -2.364396,-11.605939 -6.21875,-15.71875 z"
       transform="scale(0.28222223,0.28222223)"
       id="path3976"
       inkscape:connector-curvature="0" />
    <path
       transform="matrix(4.3274074,0,0,3.2455556,117.19278,-35.348334)"
       d="m -24,13 a 1.5,2 0 1 1 -3,0 1.5,2 0 1 1 3,0 z"
       sodipodi:ry="2"
       sodipodi:rx="1.5"
       sodipodi:cy="13"
       sodipodi:cx="-25.5"
       id="path3952"
       style="opacity:0.2;fill:#000000;fill-opacity:1;stroke:none"
       sodipodi:type="arc" />
  </g>
  <g
     inkscape:groupmode="layer"
     id="layer2"
     inkscape:label="Base">
    <path
       sodipodi:type="arc"
       style="opacity:1;fill:url(#linearGradient4079);fill-opacity:1.0;stroke:none"
       id="path3942"
       sodipodi:cx="-25.5"
       sodipodi:cy="13"
       sodipodi:rx="1.5"
       sodipodi:ry="2"
       d="m -24,13 a 1.5,2 0 1 1 -3,0 1.5,2 0 1 1 3,0 z"
       transform="matrix(4.3274075,0,0,3.2455556,117.12222,-35.418889)" />
    <path
       style="opacity:0.1;fill:#000000;fill-opacity:1;stroke:none"
       d="M 40.03125 7.53125 C 43.74361 11.615755 46 17.04568 46 23 C 46 35.702549 35.702549 46 23 46 C 17.04568 46 11.615755 43.74361 7.53125 40.03125 C 11.709416 44.322508 17.537578 47 24 47 C 36.702549 47 47 36.702549 47 24 C 47 17.537578 44.322508 11.709416 40.03125 7.53125 z "
       id="path4027"
       transform="scale(0.28222223,0.28222223)" />
    <use
       id="use102"
       xlink:href="#7"
       transform="matrix(0.39511112,0,0,0.39511112,7.9586669,-2.4271114)"
       style="opacity:0.2"
       x="0"
       y="0"
       width="744.09448"
       height="1052.3622" />
    <use
       id="use104-7"
       xlink:href="#7"
       transform="matrix(0.39511112,0,0,0.39511112,7.9586669,-2.7093336)"
       style="fill:#f9f9f9"
       x="0"
       y="0"
       width="744.09448"
       height="1052.3622" />
    <use
       id="use108-3"
       xlink:href="#7"
       transform="matrix(0.31044445,0,0,0.31044445,7.7046669,-0.67733354)"
       style="fill:#355464"
       x="0"
       y="0"
       width="744.09448"
       height="1052.3622" />
    <use
       id="use110"
       xlink:href="#7"
       transform="matrix(0.22577778,0,0,0.22577778,7.4506669,1.3546665)"
       style="fill:#566d80"
       x="0"
       y="0"
       width="744.09448"
       height="1052.3622" />
    <use
       id="use112"
       xlink:href="#7"
       transform="matrix(0.16933334,0,0,0.16933334,7.2813335,2.7093332)"
       style="fill:#355464"
       x="0"
       y="0"
       width="744.09448"
       height="1052.3622" />
    <use
       id="use114"
       xlink:href="#7"
       transform="matrix(0.05644445,0,0,0.05644445,6.9426669,4.5719999)"
       style="fill:url(#6-9)"
       x="0"
       y="0"
       width="744.09448"
       height="1052.3622" />
    <use
       id="use116"
       xlink:href="#7"
       transform="matrix(0.02822222,0,0,0.02822222,6.8580002,6.6604444)"
       style="fill:url(#radialGradient3922)"
       x="0"
       y="0"
       width="744.09448"
       height="1052.3622" />
    <g
       id="g4113"
       transform="matrix(0.04105051,0,0,0.04105051,1.6882017,1.9729894)"
       style="fill:#fdfbfb;fill-opacity:1" />
    <g
       id="g5460">
      <rect
         id="rect3955"
         style="fill:#000000;fill-opacity:0.11764706"
         rx="0.57921606"
         ry="0.55182749"
         height="7.3377781"
         width="5.6444445"
         y="3.3866665"
         x="4.2333336" />
      <g
         id="g4636"
         transform="scale(0.28222223,0.28222223)">
        <g
           id="g4624">
          <rect
             x="14"
             y="11"
             width="20"
             height="26"
             ry="1.9552943"
             rx="2.0523403"
             style="fill:#373737;fill-opacity:1"
             id="rect4717" />
          <rect
             x="15"
             y="12"
             width="18"
             height="20"
             ry="1.9953333"
             rx="2.072885"
             style="fill:#666666"
             id="rect4727" />
          <circle
             style="opacity:0.63555998;fill:#666666"
             id="path5148"
             transform="matrix(0.0308129,0,0,0.0308129,36.5,8.000495)"
             d="m -146.04271,860.01324 a 48.680904,48.680904 0 0 1 -48.68091,48.68091 48.680904,48.680904 0 0 1 -48.6809,-48.68091 48.680904,48.680904 0 0 1 48.6809,-48.6809 48.680904,48.680904 0 0 1 48.68091,48.6809 z"
             sodipodi:type="arc"
             sodipodi:ry="48.680904"
             sodipodi:rx="48.680904"
             sodipodi:cy="860.01324"
             sodipodi:cx="-194.72362" />
          <circle
             style="opacity:0.63555998;fill:#e70909;fill-opacity:1"
             id="path5152"
             transform="matrix(0.02054194,0,0,0.02054194,34.500001,16.833659)"
             d="m -146.04271,860.01324 a 48.680904,48.680904 0 0 1 -48.68091,48.68091 48.680904,48.680904 0 0 1 -48.6809,-48.68091 48.680904,48.680904 0 0 1 48.6809,-48.6809 48.680904,48.680904 0 0 1 48.68091,48.6809 z"
             sodipodi:type="arc"
             sodipodi:ry="48.680904"
             sodipodi:rx="48.680904"
             sodipodi:cy="860.01324"
             sodipodi:cx="-194.72362" />
          <g
             id="g4619">
            <rect
               id="rect4739"
               style="fill:url(#linearGradient3843);fill-opacity:1"
               rx="1.967672"
               ry="1.9066957"
               height="18"
               width="16"
               y="13"
               x="16" />
            <path
               inkscape:connector-curvature="0"
               d="m 32,22 -16,4 0,2 16,-4 z"
               id="path56"
               style="fill:#ffe68e;fill-opacity:1"
               sodipodi:nodetypes="ccccc" />
          </g>
        </g>
        <g
           id="g4614">
          <path
             style="fill:#000000;fill-opacity:0.09803922;fill-rule:evenodd;stroke:none"
             inkscape:connector-curvature="0"
             d="m 24.507753,25.5 c -0.221136,-1.12448 -0.613664,-2.060274 -1.088932,-2.926393 -0.352142,-0.641834 -0.759938,-1.23586 -1.137198,-1.859384 -0.125097,-0.208519 -0.234926,-0.427211 -0.354113,-0.643868 -0.242313,-0.431279 -0.438823,-0.931726 -0.427003,-1.581188 0.01132,-0.63573 0.1906,-1.144314 0.448181,-1.561353 0.421093,-0.683537 1.129318,-1.245523 2.079856,-1.392503 0.775205,-0.121043 1.504607,0.08341 2.020262,0.39517 0.421093,0.252257 0.74861,0.591991 0.996341,0.993264 0.259551,0.417039 0.438823,0.909857 0.454091,1.553725 0.0079,0.329562 -0.0463,0.63573 -0.119186,0.887987 -0.07486,0.256327 -0.194541,0.470949 -0.301907,0.699304 -0.207838,0.447045 -0.469359,0.856456 -0.73285,1.265357 -0.781116,1.219585 -1.515935,2.465616 -1.83705,4.169882 m 0,0"
             id="path3863" />
          <path
             id="path60-4"
             d="m 24.007753,25 c -0.221136,-1.12448 -0.613664,-2.060274 -1.088932,-2.926393 -0.352142,-0.641834 -0.759938,-1.23586 -1.137198,-1.859384 -0.125097,-0.208519 -0.234926,-0.427211 -0.354113,-0.643868 -0.242313,-0.431279 -0.438823,-0.931726 -0.427003,-1.581188 0.01132,-0.63573 0.1906,-1.144314 0.448181,-1.561353 0.421093,-0.683537 1.129318,-1.245523 2.079856,-1.392503 0.775205,-0.121043 1.504607,0.08341 2.020262,0.39517 0.421093,0.252257 0.74861,0.591991 0.996341,0.993264 0.259551,0.417039 0.438823,0.909857 0.454091,1.553725 0.0079,0.329562 -0.0463,0.63573 -0.119186,0.887987 -0.07486,0.256327 -0.194541,0.470949 -0.301907,0.699304 -0.207838,0.447045 -0.469359,0.856456 -0.73285,1.265357 C 25.064179,22.049703 24.32936,23.295734 24.008245,25 m 0,0"
             inkscape:connector-curvature="0"
             style="fill:#f3533d;fill-opacity:1;fill-rule:evenodd;stroke:none" />
          <path
             id="path62-0"
             d="m 25.4,18.1 c 0,0.773332 -0.625805,1.4 -1.398977,1.4 C 23.227339,19.5 22.6,18.87282 22.6,18.1 c 0,-0.773333 0.62785,-1.4 1.401023,-1.4 0.773685,0 1.398977,0.62718 1.398977,1.4 m 0,0"
             inkscape:connector-curvature="0"
             style="fill:#c12f20;fill-opacity:1;fill-rule:evenodd;stroke:none" />
        </g>
      </g>
    </g>
  </g>
  <g
     inkscape:groupmode="layer"
     id="layer3"
     inkscape:label="Symbol" />
</svg>

<svg xmlns="http://www.w3.org/2000/svg" width="48" viewBox="0 0 13.546667 13.546667" height="48">
 <defs>
  <linearGradient id="linearGradient4079" y1="15" x2="0" y2="11" gradientUnits="userSpaceOnUse">
   <stop style="stop-color:#99c8ed;stop-opacity:1"/>
   <stop offset="1" style="stop-color:#aad2f0;stop-opacity:1"/>
  </linearGradient>
  <linearGradient id="linearGradient3843" y1="13" x2="0" y2="31" gradientUnits="userSpaceOnUse" gradientTransform="matrix(0.9587455,0,0,0.97514518,0.98996259,0.60596513)">
   <stop style="stop-color:#5ab133;stop-opacity:1"/>
   <stop offset="1" style="stop-color:#54a630;stop-opacity:1"/>
  </linearGradient>
 </defs>
 <g>
  <path d="m 25 2 c -12.703 0 -23 10.297 -23 23 0 6.367 2.601 12.12 6.781 16.281 4.085 3.712 9.514 5.969 15.469 5.969 c 12.703 0 23 -10.297 23 -23 0 -5.954 -2.256 -11.384 -5.969 -15.469 c -4.165 -4.181 -9.914 -6.781 -16.281 -6.781 z m 16.281 6.781 c 3.854 4.113 6.219 9.637 6.219 15.719 c 0 12.703 -10.297 23 -23 23 c -6.081 0 -11.606 -2.364 -15.719 -6.219 4.16 4.144 9.883 6.719 16.219 6.719 12.703 0 23 -10.297 23 -23 0 -6.335 -2.575 -12.06 -6.719 -16.219 z" transform="scale(0.28222223,0.28222223)" style="fill:#000;opacity:0.05;fill-opacity:1;stroke:none"/>
  <path d="m 41.28 8.781 c 3.712 4.085 5.969 9.514 5.969 15.469 c 0 12.703 -10.297 23 -23 23 -5.954 0 -11.384 -2.256 -15.469 -5.969 c 4.113 3.854 9.637 6.219 15.719 6.219 c 12.703 0 23 -10.297 23 -23 0 -6.081 -2.364 -11.606 -6.219 -15.719 z" transform="scale(0.28222223,0.28222223)" style="fill:#000;opacity:0.1;fill-opacity:1;stroke:none"/>
  <path transform="matrix(4.3274074,0,0,3.2455556,117.19278,-35.348334)" d="m -24 13 a 1.5 2 0 1 1 -3 0 1.5 2 0 1 1 3 0 z" style="fill:#000;opacity:0.2;fill-opacity:1;stroke:none"/>
 </g>
 <g>
  <path d="m -24 13 a 1.5 2 0 1 1 -3 0 1.5 2 0 1 1 3 0 z" transform="matrix(4.3274075,0,0,3.2455556,117.12222,-35.418889)" style="fill:url(#linearGradient4079);opacity:1;fill-opacity:1;stroke:none"/>
  <path d="m 40.03 7.531 c 3.712 4.085 5.969 9.514 5.969 15.469 c 0 12.703 -10.297 23 -23 23 c -5.954 0 -11.384 -2.256 -15.469 -5.969 c 4.178 4.291 10.01 6.969 16.469 6.969 c 12.703 0 23 -10.297 23 -23 c 0 -6.462 -2.677 -12.291 -6.969 -16.469 z" transform="scale(0.28222223,0.28222223)" style="fill:#000;opacity:0.1;fill-opacity:1;stroke:none"/>
  <g>
   <rect rx="0.579" ry="0.552" height="7.338" width="5.644" y="3.387" x="4.233" style="fill:#000;fill-opacity:0.118"/>
   <g transform="scale(0.28222223,0.28222223)">
    <g>
     <rect x="14" y="11" width="20" height="26" ry="1.955" rx="2.052" style="fill:#373737;fill-opacity:1"/>
     <rect x="15" y="12" width="18" height="20" ry="1.995" rx="2.073" style="fill:#666"/>
     <g>
      <rect rx="1.968" ry="1.907" height="18" width="16" y="13" x="16" style="fill:url(#linearGradient3843);fill-opacity:1"/>
      <path d="m 32 22 -16 4 0 2 16 -4 z" style="fill:#ffe68e;fill-opacity:1"/>
     </g>
    </g>
    <g>
     <path d="m 24.508 25.5 c -0.221 -1.124 -0.614 -2.06 -1.089 -2.926 -0.352 -0.642 -0.76 -1.236 -1.137 -1.859 -0.125 -0.209 -0.235 -0.427 -0.354 -0.644 -0.242 -0.431 -0.439 -0.932 -0.427 -1.581 0.011 -0.636 0.191 -1.144 0.448 -1.561 0.421 -0.684 1.129 -1.246 2.08 -1.393 0.775 -0.121 1.505 0.083 2.02 0.395 0.421 0.252 0.749 0.592 0.996 0.993 0.26 0.417 0.439 0.91 0.454 1.554 0.008 0.33 -0.046 0.636 -0.119 0.888 -0.075 0.256 -0.195 0.471 -0.302 0.699 -0.208 0.447 -0.469 0.856 -0.733 1.265 -0.781 1.22 -1.516 2.466 -1.837 4.17 m 0 0" style="fill:#000;fill-opacity:0.098;stroke:none;fill-rule:evenodd"/>
     <path d="m 24.01 25 c -0.221 -1.124 -0.614 -2.06 -1.089 -2.926 -0.352 -0.642 -0.76 -1.236 -1.137 -1.859 -0.125 -0.209 -0.235 -0.427 -0.354 -0.644 -0.242 -0.431 -0.439 -0.932 -0.427 -1.581 0.011 -0.636 0.191 -1.144 0.448 -1.561 0.421 -0.684 1.129 -1.246 2.08 -1.393 0.775 -0.121 1.505 0.083 2.02 0.395 0.421 0.252 0.749 0.592 0.996 0.993 0.26 0.417 0.439 0.91 0.454 1.554 0.008 0.33 -0.046 0.636 -0.119 0.888 -0.075 0.256 -0.195 0.471 -0.302 0.699 -0.208 0.447 -0.469 0.856 -0.733 1.265 c -0.781 1.22 -1.516 2.466 -1.837 4.17 m 0 0" style="fill:#f3533d;fill-opacity:1;stroke:none;fill-rule:evenodd"/>
     <path d="m 25.4 18.1 c 0 0.773 -0.626 1.4 -1.399 1.4 c -0.774 0 -1.401 -0.627 -1.401 -1.4 c 0 -0.773 0.628 -1.4 1.401 -1.4 0.774 0 1.399 0.627 1.399 1.4 m 0 0" style="fill:#c12f20;fill-opacity:1;stroke:none;fill-rule:evenodd"/>
    </g>
   </g>
  </g>
 </g>
</svg>
